logos/cucumber.svg

<?xml version="1.0" encoding="UTF-8"?>
<svg width="256px" height="293px" viewBox="0 0 256 293" version="1.1" xmlns="http://www.w3.org/2000/svg" preserveAspectRatio="xMidYMid">
    <title>Cucumber</title>
    <g>
        <path d="M190.207416,22.9871061 C187.987615,21.6543849 185.717365,20.407849 183.396664,19.2474987 C181.025513,18.0871483 178.5913,16.9583292 176.119249,15.9808601 C175.337274,15.652935 174.561605,15.3502349 173.773323,15.0412285 C171.610279,14.2403345 169.428316,13.351153 167.202209,12.701609 C123.828598,-1.78125297 75.9992907,9.09703798 43.1562432,40.9146063 C10.3131956,72.7321746 -2.07633217,120.192468 11.0238323,164.003529 C24.1239968,207.814591 60.5331177,240.683356 105.451388,249.249124 L105.451388,284.311885 C179.083187,273.257025 244.289834,215.075544 249.151954,138.681606 C252.046524,92.7153351 229.016091,45.7905136 190.207416,22.9871061 Z" fill="#23D96C"></path>
        <path d="M98.7919863,292.024431 L98.7919863,254.596825 C52.7729114,243.480773 16.5294609,208.068206 4.34931758,162.31926 C-7.8308257,116.570315 6.00635759,67.8243412 40.4060533,35.2976935 C74.8057489,2.77104579 124.24933,-8.31813518 169.245434,6.40166322 C170.973347,6.90616339 172.758017,7.58093236 174.492236,8.23678257 L176.056186,8.82326401 C177.096718,9.22686414 177.891306,9.53587049 178.685894,9.8764081 C180.880469,10.7403646 183.346214,11.850265 186.303846,13.300703 C188.780101,14.5409325 191.203804,15.8715517 193.574955,17.2925605 C233.890824,40.9788432 258.869888,89.9279717 255.735681,139.104125 C250.924011,214.77915 188.120047,278.611033 106.409939,290.876693 L98.7919863,292.024431 Z M129.061996,13.1983692 L128.898034,13.1983692 C69.0358246,12.9044451 18.8120164,58.2761915 13.0447211,117.860666 C7.27742573,177.445141 47.8671947,231.606907 106.674801,242.797828 L112.035116,243.838359 L112.035116,276.504745 C183.875939,262.47964 238.216913,205.420672 242.486246,138.259087 C245.311447,93.9072167 222.936864,49.8580461 186.80204,28.637508 L186.75159,28.6059767 C184.664221,27.3447263 182.520095,26.1780697 180.382275,25.1060068 C177.803018,23.8447564 175.639974,22.8672873 173.628279,22.0726996 C172.814773,21.7258557 172.140004,21.4420744 171.458929,21.2024368 L169.756241,20.5718116 C168.198596,19.9790239 166.722933,19.4177675 165.291414,19.0015548 C153.602448,15.1623897 141.377905,13.2040788 129.074609,13.1983692 L129.061996,13.1983692 Z" fill="#173647"></path>
        <path d="M104.335182,66.7209641 C108.094082,66.2533661 111.838538,67.6915398 114.317979,70.5551654 C116.209363,72.6235655 117.759106,74.9801121 118.90893,77.5361864 C122.976463,86.5036768 125.385451,99.3621248 120.359368,106.576477 C109.659384,103.837397 100.57116,96.7900862 95.2541789,87.109077 C93.9246788,84.4850036 93.1782044,81.604516 93.0659094,78.6650055 C93.244215,72.3995944 98.0907071,67.2629094 104.335182,66.7209641 L104.335182,66.7209641 Z M68.4967514,117.328637 C70.9089149,119.110485 73.4801207,120.666297 76.1777664,121.976345 C86.0679913,126.243286 97.3377426,125.924788 106.971195,121.106082 C103.202584,111.279613 95.5821176,103.41994 85.8767821,99.3495123 C83.0144587,98.0643246 79.9203735,97.3755581 76.7831666,97.3252053 C76.1138077,97.268333 75.4408311,97.268333 74.7714722,97.3252053 C70.0750665,97.5160074 66.0040549,100.634771 64.5972495,105.119582 C63.190444,109.604394 64.7507516,114.489602 68.4967514,117.328637 Z M106.964889,138.978 C102.064931,135.711362 91.9623153,137.029368 86.0785821,137.136575 C82.4656653,137.18792 78.8972678,137.941867 75.5723662,139.356375 C72.7201324,140.364918 70.1056805,141.949044 67.8913512,144.010389 C64.1186719,147.317679 62.9362947,152.694685 64.9735287,157.279546 C67.0107628,161.864407 71.7937784,164.590754 76.7768604,164.007515 C79.922093,164.028617 83.0311954,163.336508 85.8704758,161.983208 C94.9262538,158.073331 105.678414,147.352703 106.971195,138.978 L106.964889,138.978 Z M123.424207,151.590504 C112.925494,155.476922 104.451624,163.454739 99.9397242,173.700224 C98.6614542,176.279035 97.9701344,179.108924 97.9154172,181.986639 C97.7998647,186.97476 100.776394,191.516152 105.396332,193.400527 C110.01627,195.284901 115.319938,194.120826 118.726049,190.474854 C120.437051,188.059846 121.915129,185.48799 123.140425,182.793839 C127.056608,174.387605 128.60164,159.334582 123.430513,151.590504 L123.424207,151.590504 Z M139.549293,106.393596 C149.823756,103.376701 158.316257,96.1075793 162.882426,86.4216955 C164.155644,83.7698949 164.841816,80.8746355 164.89412,77.9334803 C165.038909,71.4562558 160.046703,66.0188138 153.580704,65.6110638 C149.753962,65.1933605 145.970548,66.7090906 143.490701,69.6533713 C141.767502,72.066282 140.27877,74.6383052 139.044793,77.3343863 C135.134917,86.3775518 133.734929,99.2801435 139.5556,106.362065 L139.549293,106.393596 Z M166.086002,182.793839 C166.028655,179.85391 165.338203,176.960893 164.061695,174.31193 C159.894762,164.542801 151.731877,157.034509 141.649275,153.696792 C136.633077,162.854242 136.1075,173.809972 140.224062,183.405546 C141.30816,185.982808 142.798541,188.369546 144.638439,190.474854 C151.783422,198.231544 166.741852,192.492855 166.092308,182.793839 L166.086002,182.793839 Z M192.572261,143.190577 C190.158362,141.481317 187.588767,140.003325 184.897552,138.7762 C181.572214,137.363076 178.004092,136.609186 174.391336,136.556399 C167.500723,135.981641 160.577997,137.186821 154.287004,140.056369 C158.00562,149.759009 165.575684,157.488875 175.198536,161.409339 C178.061762,162.691014 181.155549,163.377568 184.292152,163.427339 C189.347013,164.005962 194.169432,161.150397 196.09238,156.439908 C198.015328,151.72942 196.569023,146.314794 192.553342,143.190577 L192.572261,143.190577 Z" fill="#173647"></path>
    </g>
</svg>

<svg preserveAspectRatio="xMidYMid" viewBox="0 0 256 293" xmlns="http://www.w3.org/2000/svg">
  <path fill="#23D96C" d="M190.207 22.987a100.83 100.83 0 0 0-6.81-3.74c-2.371-1.16-4.806-2.289-7.278-3.266-.782-.328-1.557-.63-2.346-.94-2.163-.8-4.345-1.69-6.57-2.34C123.828-1.78 75.998 9.098 43.155 40.916 10.313 72.732-2.076 120.192 11.024 164.004c13.1 43.81 49.51 76.68 94.427 85.245v35.063c73.632-11.055 138.839-69.236 143.701-145.63 2.895-45.967-20.136-92.891-58.945-115.695Z"/>
  <path fill="#173647" d="M98.792 292.024v-37.427c-46.02-11.116-82.263-46.529-94.443-92.278C-7.83 116.57 6.006 67.824 40.406 35.298 74.806 2.77 124.25-8.318 169.246 6.402c1.727.504 3.512 1.179 5.246 1.835l1.564.586c1.04.404 1.835.713 2.63 1.053 2.194.864 4.66 1.974 7.618 3.425 2.476 1.24 4.9 2.57 7.271 3.992 40.316 23.686 65.295 72.635 62.16 121.811-4.811 75.675-67.615 139.507-149.325 151.773l-7.618 1.147Zm30.27-278.826h-.164C69.036 12.904 18.812 58.276 13.045 117.861c-5.768 59.584 34.822 113.746 93.63 124.937l5.36 1.04v32.667c71.84-14.025 126.182-71.084 130.451-138.246 2.825-44.352-19.55-88.401-55.684-109.621l-.05-.032a92.648 92.648 0 0 0-6.37-3.5c-2.579-1.261-4.742-2.239-6.754-3.033a35.943 35.943 0 0 0-2.17-.87l-1.702-.631c-1.557-.593-3.033-1.154-4.465-1.57a116.236 116.236 0 0 0-36.216-5.804h-.013Z"/>
  <path fill="#173647" d="M104.335 66.721c3.76-.468 7.504.97 9.983 3.834a26.385 26.385 0 0 1 4.59 6.981c4.068 8.968 6.477 21.826 1.451 29.04A39.944 39.944 0 0 1 95.254 87.11a20.407 20.407 0 0 1-2.188-8.444 12.341 12.341 0 0 1 11.27-11.944Zm-35.838 50.608a48.823 48.823 0 0 0 7.68 4.647 36.507 36.507 0 0 0 30.794-.87A38.569 38.569 0 0 0 85.877 99.35a23.106 23.106 0 0 0-9.094-2.025 11.881 11.881 0 0 0-2.012 0 11.137 11.137 0 0 0-6.274 20.004Zm38.468 21.649c-4.9-3.267-15.003-1.949-20.886-1.841a27.848 27.848 0 0 0-10.507 2.22 22.072 22.072 0 0 0-7.68 4.653 11.458 11.458 0 0 0 8.885 19.998 20.81 20.81 0 0 0 9.093-2.025c9.056-3.91 19.808-14.63 21.101-23.005h-.006Zm16.46 12.613A41.344 41.344 0 0 0 99.94 173.7a19.493 19.493 0 0 0-2.025 8.286 12.026 12.026 0 0 0 20.811 8.488 46.805 46.805 0 0 0 4.414-7.681c3.917-8.406 5.462-23.46.29-31.203h-.006Zm16.124-45.197a37.465 37.465 0 0 0 23.333-19.972 20.451 20.451 0 0 0 2.012-8.489c.145-6.477-4.847-11.914-11.313-12.322a11.553 11.553 0 0 0-10.09 4.042 46.553 46.553 0 0 0-4.446 7.681c-3.91 9.044-5.31 21.946.51 29.028l-.006.032Zm26.537 76.4a20.457 20.457 0 0 0-2.024-8.482 37.011 37.011 0 0 0-22.413-20.615 33.965 33.965 0 0 0-1.425 29.709 26.152 26.152 0 0 0 4.414 7.069c7.145 7.757 22.104 2.018 21.454-7.681h-.006Zm26.486-39.603a47.083 47.083 0 0 0-7.674-4.415 27.905 27.905 0 0 0-10.507-2.22 40.36 40.36 0 0 0-20.104 3.5 37.579 37.579 0 0 0 20.912 21.353 23.157 23.157 0 0 0 9.093 2.018 11.351 11.351 0 0 0 8.261-20.236h.02Z"/>
</svg>
